icons/svg/shields/h_survey_point_shield.svg

<?xml version="1.0" encoding="UTF-8" standalone="no"?>
<!-- Created with Inkscape (http://www.inkscape.org/) -->

<svg
   xmlns:dc="http://purl.org/dc/elements/1.1/"
   xmlns:cc="http://creativecommons.org/ns#"
   xmlns:rdf="http://www.w3.org/1999/02/22-rdf-syntax-ns#"
   xmlns:svg="http://www.w3.org/2000/svg"
   xmlns="http://www.w3.org/2000/svg"
   xmlns:sodipodi="http://sodipodi.sourceforge.net/DTD/sodipodi-0.dtd"
   xmlns:inkscape="http://www.inkscape.org/namespaces/inkscape"
   version="1.0"
   width="16"
   height="16"
   id="svg2"
   sodipodi:version="0.32"
   inkscape:version="0.91 r13725"
   sodipodi:docname="h_survey_point_shield.svg"
   inkscape:output_extension="org.inkscape.output.svg.inkscape">
  <metadata
     id="metadata2975">
    <rdf:RDF>
      <cc:Work
         rdf:about="">
        <dc:format>image/svg+xml</dc:format>
        <dc:type
           rdf:resource="http://purl.org/dc/dcmitype/StillImage" />
        <cc:license
           rdf:resource="http://web.resource.org/cc/PublicDomain" />
        <dc:language>en</dc:language>
        <dc:title />
      </cc:Work>
    </rdf:RDF>
  </metadata>
  <sodipodi:namedview
     inkscape:window-height="1006"
     inkscape:window-width="1920"
     inkscape:pageshadow="2"
     inkscape:pageopacity="0.0"
     guidetolerance="10.0"
     gridtolerance="10.0"
     objecttolerance="10.0"
     borderopacity="1.0"
     bordercolor="#666666"
     pagecolor="#ffffff"
     id="base"
     inkscape:zoom="32"
     inkscape:cx="6.1343422"
     inkscape:cy="6.0337863"
     inkscape:window-x="1920"
     inkscape:window-y="0"
     inkscape:current-layer="svg2"
     showgrid="false"
     inkscape:window-maximized="1" />
  <defs
     id="defs4">
    <inkscape:perspective
       sodipodi:type="inkscape:persp3d"
       inkscape:vp_x="0 : 290 : 1"
       inkscape:vp_y="0 : 1000 : 0"
       inkscape:vp_z="580 : 290 : 1"
       inkscape:persp3d-origin="290 : 193.33333 : 1"
       id="perspective2441" />
    <inkscape:perspective
       id="perspective3452"
       inkscape:persp3d-origin="30 : 20 : 1"
       inkscape:vp_z="60 : 30 : 1"
       inkscape:vp_y="0 : 1000 : 0"
       inkscape:vp_x="0 : 30 : 1"
       sodipodi:type="inkscape:persp3d" />
    <symbol
       viewBox="244.5 110 489 219.9"
       id="symbol-university">
      <path
         id="path4460"
         d="m 79,43 57,119 c 0,0 21,-96 104,-96 83,0 124,106 124,106 L 407,39 489,22 0,17 79,43 z"
         inkscape:connector-curvature="0" />
      <path
         id="path4462"
         d="M 94,176 73,215"
         inkscape:connector-curvature="0"
         style="fill:none;stroke:#000000;stroke-width:20" />
      <path
         id="path4464"
         d="M 300,19 C 300,29.5 277.4,38 249.5,38 221.6,38 199,29.5 199,19 199,8.5 221.6,0 249.5,0 277.4,0 300,8.5 300,19 z"
         inkscape:connector-curvature="0" />
      <path
         id="path4466"
         d="M 112,216 96,178 64,88 C 64,88 55,80 60,53 65,26 76,29 76,29"
         ill="none"
         inkscape:connector-curvature="0"
         style="stroke:#000000;stroke-width:20" />
    </symbol>
    <inkscape:perspective
       id="perspective4471"
       inkscape:persp3d-origin="372.04724 : 350.78739 : 1"
       inkscape:vp_z="744.09448 : 526.18109 : 1"
       inkscape:vp_y="0 : 1000 : 0"
       inkscape:vp_x="0 : 526.18109 : 1"
       sodipodi:type="inkscape:persp3d" />
    <inkscape:perspective
       id="perspective4668"
       inkscape:persp3d-origin="6 : 4 : 1"
       inkscape:vp_z="12 : 6 : 1"
       inkscape:vp_y="0 : 1000 : 0"
       inkscape:vp_x="0 : 6 : 1"
       sodipodi:type="inkscape:persp3d" />
  </defs>
  <path
     style="color:#000000;font-style:normal;font-variant:normal;font-weight:normal;font-stretch:normal;font-size:medium;line-height:normal;font-family:Sans;-inkscape-font-specification:Sans;text-indent:0;text-align:start;text-decoration:none;text-decoration-line:none;letter-spacing:normal;word-spacing:normal;text-transform:none;direction:ltr;block-progression:tb;writing-mode:lr-tb;baseline-shift:baseline;text-anchor:start;display:inline;overflow:visible;visibility:visible;opacity:0.807;fill:#ebe7e4;fill-opacity:1;fill-rule:nonzero;stroke:none;stroke-width:1.01682901;marker:none;enable-background:accumulate"
     d="m 7.389807,1.1833685 c -0.6232074,0 -1.1515937,0.5283863 -1.1515937,1.1515937 l 0,1.3122813 c 0,0.3203484 0.152005,0.5894951 0.3749375,0.8034375 l -1.92825,8.971719 c -5.35e-4,0.01785 -5.35e-4,0.03571 0,0.05356 0.00283,-0.01727 -0.00141,0.09779 0,0.08034 0.00141,-0.01744 -0.026759,0.124625 -0.026781,0.107125 -2.26e-5,-0.0175 0.028236,0.09778 0.026781,0.08034 -0.00146,-0.01744 0.00288,0.124387 0,0.107125 -0.00288,-0.01726 0.031061,0.09731 0.026781,0.08034 -0.00428,-0.01697 0.032436,0.09691 0.026781,0.08034 -0.00299,-0.0088 0.016186,0.02618 0.026781,0.05356 0.00942,0.02434 0.00329,0.06111 0,0.05356 0.00557,0.01423 0.028775,0.03144 0.026781,0.02678 -0.00498,-0.01165 0.032446,0.06489 0.026781,0.05356 -0.00566,-0.01133 0.033108,0.06454 0.026781,0.05356 -0.00632,-0.01098 0.033747,0.06414 0.026781,0.05356 0.024054,0.03765 0.050936,0.07349 0.080344,0.107125 -0.00522,-0.0061 0.00946,0.0081 0.026781,0.02678 0.017323,0.01867 0.032438,0.03244 0.026781,0.02678 0.017322,0.01867 0.032438,0.03244 0.026781,0.02678 0.018671,0.01732 0.032845,0.032 0.026781,0.02678 0.018671,0.01732 0.032845,0.032 0.026781,0.02678 0.033634,0.0294 0.069476,0.05629 0.107125,0.08034 -0.01058,-0.0069 0.064536,0.03311 0.053562,0.02678 -0.010974,-0.0063 0.064892,0.03245 0.053562,0.02678 -0.0068,-0.0034 0.006,0.0171 0.026781,0.02678 0.013855,0.0064 0.031439,0.002 0.026781,0 0.019275,0.009 0.033245,0.02959 0.026781,0.02678 -0.010772,-0.0047 0.064576,0.03086 0.053562,0.02678 -0.011013,-0.0041 0.091565,0.0034 0.080344,0 -0.011221,-0.0034 0.064957,0.02963 0.053562,0.02678 -0.011395,-0.0028 0.065097,0.029 0.053562,0.02678 -0.011534,-0.0022 0.065201,0.0015 0.053562,0 -0.011638,-0.0015 0.092052,9.43e-4 0.080344,0 -0.011707,-9.43e-4 0.065304,2.94e-4 0.053562,0 0.035666,0.0021 0.071459,0.0021 0.107125,0 -0.011732,9.43e-4 0.065226,-0.0015 0.053562,0 -0.011664,0.0015 0.065123,-0.0022 0.053562,0 -0.01156,0.0022 0.091764,-0.02962 0.080344,-0.02678 -0.01142,0.0028 0.06481,-0.0034 0.053562,0 -0.011247,0.0034 0.064602,-0.03086 0.053562,-0.02678 -0.011039,0.0041 0.064361,-0.03146 0.053562,-0.02678 -0.010798,0.0047 0.064087,-0.03205 0.053562,-0.02678 -0.010524,0.0052 0.090561,-0.03262 0.080344,-0.02678 -0.010218,0.0058 0.063443,-0.03317 0.053562,-0.02678 -0.00988,0.0064 0.036295,-0.06049 0.026781,-0.05356 -0.00951,0.0069 0.06268,-0.03422 0.053562,-0.02678 -0.00912,0.0075 0.062257,-0.06149 0.053562,-0.05356 -0.00869,0.008 0.061807,-0.03518 0.053562,-0.02678 -0.00824,0.0084 0.034551,-0.0624 0.026781,-0.05356 -0.00777,0.0088 0.060833,-0.06282 0.053562,-0.05356 -0.00727,0.0093 0.033532,-0.0632 0.026781,-0.05356 0.00912,-0.0087 0.018045,-0.01766 0.026781,-0.02678 -0.00697,0.01058 0.033108,-0.06454 0.026781,-0.05356 -0.00632,0.01098 0.032446,-0.06489 0.026781,-0.05356 -0.00566,0.01133 0.031765,-0.06521 0.026781,-0.05356 -0.00349,0.0081 0.018522,-0.03285 0.026781,-0.05356 -0.00149,0.0035 -0.00345,-0.01787 0,-0.02678 0.00806,-0.02079 0.029781,-0.06191 0.026781,-0.05356 0.01019,-0.02634 0.01913,-0.05316 0.026781,-0.08034 0.00602,0.02496 0.029463,0.06342 0.026781,0.05356 -0.00383,-0.01408 0.031564,0.09413 0.026781,0.08034 -0.00478,-0.01378 0.032493,0.06699 0.026781,0.05356 -0.00572,-0.01343 0.033397,0.09335 0.026781,0.08034 -0.00752,-0.01439 0.06215,0.09412 0.053562,0.08034 -0.00859,-0.01378 0.063171,0.09343 0.053562,0.08034 -0.00961,-0.01309 0.064137,0.09266 0.053562,0.08034 -0.010574,-0.01231 0.065041,0.06504 0.053562,0.05356 -0.011479,-0.01148 0.06588,0.06414 0.053562,0.05356 -0.012318,-0.01058 0.093428,0.06317 0.080344,0.05356 -0.013085,-0.0096 0.09412,0.06215 0.080344,0.05356 -0.013776,-0.0086 0.094733,0.06108 0.080344,0.05356 0.017549,0.0095 0.035416,0.01846 0.053562,0.02678 -0.017945,-0.0078 0.09893,0.03294 0.080344,0.02678 -0.018587,-0.0062 0.1261972,0.03121 0.107125,0.02678 -0.019073,-0.0045 0.1265226,0.02945 0.107125,0.02678 -0.019397,-0.0027 0.1266852,8.57e-4 0.107125,0 -0.01956,-8.57e-4 0.1266835,-9.43e-4 0.107125,0 -0.019559,9.43e-4 0.1265176,-0.0027 0.107125,0 -0.019392,0.0027 0.126189,-0.03125 0.107125,-0.02678 -0.019064,0.0045 0.098919,-0.03298 0.080344,-0.02678 -0.018575,0.0062 0.1250554,-0.03465 0.107125,-0.02678 -0.01793,0.0079 0.1242602,-0.06304 0.107125,-0.05356 -0.017135,0.0095 0.09654,-0.06457 0.080344,-0.05356 -0.016196,0.011 0.095465,-0.09278 0.080344,-0.08034 -0.015121,0.01243 0.094262,-0.06733 0.080344,-0.05356 -0.013919,0.01377 0.092943,-0.09533 0.080344,-0.08034 -0.0126,0.01499 0.064737,-0.09642 0.053562,-0.08034 -0.00894,0.01286 0.039204,-0.05833 0.053562,-0.08034 0.019707,0.02986 0.035089,0.0919 0.026781,0.08034 -0.011868,-0.01651 0.093727,0.09565 0.080344,0.08034 -0.013383,-0.01531 0.09512,0.09431 0.080344,0.08034 -0.014776,-0.01396 0.09638,0.09284 0.080344,0.08034 -0.016036,-0.0125 0.097495,0.06448 0.080344,0.05356 -0.017151,-0.01092 0.1252361,0.0628 0.107125,0.05356 -0.018111,-0.0092 0.099251,0.06103 0.080344,0.05356 -0.018907,-0.0075 0.1266561,0.03242 0.107125,0.02678 -0.019531,-0.0057 0.1271047,0.03054 0.1071255,0.02678 -0.019977,-0.0038 0.1273707,0.0019 0.107125,0 -0.020242,-0.0019 0.130528,0.0267 0.107125,0.02678 -0.023405,8.8e-5 0.146606,-0.0288 0.123318,-0.02678 -0.0058,5.05e-4 0.01848,0.0017 0.03083,0 0.03706,-0.0051 0.109709,-0.0029 0.09249,0 -0.01753,0.0025 0.109761,-0.03039 0.09249,-0.02678 -0.01728,0.0036 0.109415,-0.03146 0.09249,-0.02678 -0.01693,0.0047 0.108981,-0.03251 0.09249,-0.02678 -0.0165,0.0057 0.108463,-0.03353 0.09249,-0.02678 -0.01597,0.0068 0.107861,-0.03451 0.09249,-0.02678 -0.01538,0.0077 0.07635,-0.06224 0.06166,-0.05356 -0.01469,0.0087 0.106418,-0.06314 0.09249,-0.05356 0.01049,-0.0087 0.02077,-0.01766 0.03083,-0.02678 -0.01396,0.01044 0.07468,-0.06487 0.06166,-0.05356 -0.01303,0.01131 0.07368,-0.06569 0.06166,-0.05356 0.03385,-0.03364 0.0648,-0.06948 0.09249,-0.107125 -0.008,0.01058 0.03811,-0.06454 0.03083,-0.05356 -0.0073,0.01098 0.03735,-0.06489 0.03083,-0.05356 -0.0039,0.0068 0.01969,-0.006 0.03083,-0.02678 0.0074,-0.01386 0.0022,-0.03144 0,-0.02678 -0.004,0.0081 0.02132,-0.03285 0.03083,-0.05356 -0.0027,0.0054 -0.0072,-0.01034 0,-0.02678 0.01087,-0.02466 0.03413,-0.03505 0.03083,-0.02678 -0.0055,0.01378 0.03524,-0.09442 0.03083,-0.08034 -0.0045,0.01408 0.03412,-0.09465 0.03083,-0.08034 -0.0033,0.0143 0.0021,-0.09481 0,-0.08034 -0.0021,0.01447 0.001,-0.09491 0,-0.08034 -3.4e-4,0.0049 -3.41e-4,-0.01356 0,-0.02678 -6.89e-4,0.0113 0,-0.06487 0,-0.05356 0,0.0113 -6.89e-4,-0.09164 0,-0.08034 0.0025,-0.03567 0.0025,-0.07146 0,-0.107125 L 9.5055258,4.4774622 C 9.7436411,4.2620789 9.907245,3.980126 9.907245,3.6472435 l 0,-1.3122813 c 0,-0.6232074 -0.5283868,-1.1515937 -1.1515942,-1.1515937 z"
     id="path3039"
     inkscape:connector-curvature="0"
     sodipodi:nodetypes="sssccccccccccccscccccccccccccccsccssccsscsccccccccscccccsccccccscccccsssscccccssscccsccscscccccssccccccsccccccsccsccccccccccccccscccssss" />
</svg>

<svg width="16" height="16" viewBox="0 0 16 16" fill="none" xmlns="http://www.w3.org/2000/svg">
<path opacity="0.807" d="M7.3898 1.18335C6.76659 1.18335 6.2382 1.71174 6.2382 2.33494V3.64722C6.2382 3.96757 6.39021 4.23672 6.61314 4.45066L4.68489 13.4224C4.68436 13.4402 4.68436 13.4581 4.68489 13.4759C4.68772 13.4587 4.68348 13.5737 4.68489 13.5563C4.6863 13.5388 4.65813 13.6809 4.65811 13.6634C4.65809 13.6459 4.68635 13.7612 4.68489 13.7437C4.68343 13.7263 4.68777 13.8681 4.68489 13.8509C4.68201 13.8336 4.71595 13.9482 4.71167 13.9312C4.70739 13.9142 4.74411 14.0281 4.73845 14.0116C4.73546 14.0028 4.75464 14.0377 4.76524 14.0651C4.77466 14.0895 4.76853 14.1262 4.76524 14.1187C4.77081 14.1329 4.79401 14.1501 4.79202 14.1455C4.78704 14.1338 4.82446 14.2103 4.8188 14.199C4.81314 14.1877 4.85191 14.2636 4.84558 14.2526C4.83926 14.2416 4.87933 14.3167 4.87236 14.3061C4.89641 14.3438 4.9233 14.3796 4.9527 14.4133C4.94748 14.4072 4.96216 14.4214 4.97948 14.44C4.99681 14.4587 5.01192 14.4725 5.00627 14.4668C5.02359 14.4855 5.0387 14.4993 5.03305 14.4936C5.05172 14.5109 5.06589 14.5256 5.05983 14.5204C5.0785 14.5377 5.09267 14.5524 5.08661 14.5472C5.12024 14.5766 5.15608 14.6034 5.19373 14.6275C5.18315 14.6206 5.25827 14.6606 5.2473 14.6543C5.23632 14.648 5.31219 14.6867 5.30086 14.6811C5.29406 14.6777 5.30686 14.6982 5.32764 14.7078C5.34149 14.7142 5.35908 14.7098 5.35442 14.7078C5.37369 14.7168 5.38766 14.7374 5.3812 14.7346C5.37043 14.7299 5.44578 14.7655 5.43476 14.7614C5.42375 14.7573 5.52633 14.7648 5.51511 14.7614C5.50389 14.758 5.58006 14.791 5.56867 14.7882C5.55727 14.7854 5.63377 14.8172 5.62223 14.815C5.6107 14.8128 5.68743 14.8165 5.67579 14.815C5.66415 14.8135 5.76784 14.8159 5.75614 14.815C5.74443 14.814 5.82144 14.8152 5.8097 14.815C5.84536 14.8171 5.88116 14.8171 5.91682 14.815C5.90509 14.8159 5.98205 14.8135 5.97039 14.815C5.95872 14.8165 6.03551 14.8128 6.02395 14.815C6.01239 14.8172 6.11571 14.7853 6.10429 14.7882C6.09287 14.791 6.1691 14.7848 6.15785 14.7882C6.14661 14.7916 6.22246 14.7573 6.21142 14.7614C6.20038 14.7655 6.27578 14.7299 6.26498 14.7346C6.25418 14.7393 6.32906 14.7026 6.31854 14.7078C6.30802 14.713 6.4091 14.6752 6.39888 14.6811C6.38867 14.6869 6.46233 14.6479 6.45245 14.6543C6.44257 14.6607 6.48874 14.5938 6.47923 14.6007C6.46972 14.6076 6.54191 14.5665 6.53279 14.5739C6.52367 14.5814 6.59505 14.5124 6.58635 14.5204C6.57766 14.5284 6.64816 14.4852 6.63991 14.4936C6.63167 14.502 6.67446 14.4312 6.66669 14.44C6.65892 14.4488 6.72753 14.3772 6.72026 14.3865C6.71299 14.3958 6.75379 14.3233 6.74704 14.3329C6.75616 14.3242 6.76508 14.3153 6.77382 14.3061C6.76685 14.3167 6.80693 14.2416 6.8006 14.2526C6.79428 14.2636 6.83304 14.1877 6.82738 14.199C6.82172 14.2103 6.85914 14.1338 6.85416 14.1455C6.85067 14.1536 6.87268 14.1126 6.88094 14.0919C6.87945 14.0954 6.87749 14.074 6.88094 14.0651C6.889 14.0443 6.91072 14.0032 6.90772 14.0116C6.91791 13.9852 6.92685 13.9584 6.9345 13.9312C6.94052 13.9562 6.96397 13.9946 6.96128 13.9848C6.95745 13.9707 6.99285 14.0789 6.98807 14.0651C6.98329 14.0513 7.02056 14.1321 7.01485 14.1187C7.00913 14.1052 7.04824 14.212 7.04163 14.199C7.03411 14.1846 7.10378 14.2931 7.09519 14.2794C7.0866 14.2656 7.15836 14.3728 7.14875 14.3597C7.13914 14.3466 7.21289 14.4524 7.20231 14.44C7.19174 14.4277 7.26735 14.5051 7.25588 14.4936C7.2444 14.4821 7.32176 14.5577 7.30944 14.5472C7.29712 14.5366 7.40287 14.6103 7.38978 14.6007C7.3767 14.5911 7.4839 14.6629 7.47013 14.6543C7.45635 14.6457 7.56486 14.7154 7.55047 14.7078C7.56802 14.7173 7.58589 14.7263 7.60403 14.7346C7.58609 14.7268 7.70296 14.7676 7.68438 14.7614C7.66579 14.7552 7.81057 14.7926 7.7915 14.7882C7.77243 14.7837 7.91802 14.8176 7.89863 14.815C7.87923 14.8123 8.02531 14.8158 8.00575 14.815C7.98619 14.8141 8.13243 14.814 8.11288 14.815C8.09332 14.8159 8.23939 14.8123 8.22 14.815C8.20061 14.8177 8.34619 14.7837 8.32713 14.7882C8.30806 14.7927 8.42604 14.7552 8.40747 14.7614C8.38889 14.7676 8.53252 14.7267 8.51459 14.7346C8.49666 14.7425 8.63886 14.6716 8.62172 14.6811C8.60458 14.6906 8.71826 14.6165 8.70206 14.6275C8.68587 14.6385 8.79753 14.5347 8.78241 14.5472C8.76729 14.5596 8.87667 14.4798 8.86275 14.4936C8.84883 14.5074 8.95569 14.3983 8.9431 14.4133C8.9305 14.4282 9.00783 14.3168 8.99666 14.3329C8.98772 14.3458 9.03586 14.2746 9.05022 14.2526C9.06993 14.2824 9.08531 14.3445 9.077 14.3329C9.06513 14.3164 9.17073 14.4286 9.15734 14.4133C9.14396 14.3979 9.25246 14.5076 9.23769 14.4936C9.22291 14.4796 9.33407 14.5864 9.31803 14.5739C9.302 14.5614 9.41553 14.6384 9.39838 14.6275C9.38123 14.6166 9.52361 14.6903 9.5055 14.6811C9.48739 14.6719 9.60475 14.7421 9.58585 14.7346C9.56694 14.7271 9.7125 14.767 9.69297 14.7614C9.67344 14.7557 9.82008 14.7919 9.8001 14.7882C9.78012 14.7844 9.92747 14.7901 9.90722 14.7882C9.88698 14.7863 10.0377 14.8149 10.0143 14.815C9.99094 14.815 10.161 14.7862 10.1377 14.7882C10.1319 14.7887 10.1561 14.7899 10.1685 14.7882C10.2056 14.7831 10.2782 14.7853 10.261 14.7882C10.2435 14.7907 10.3707 14.7578 10.3535 14.7614C10.3362 14.765 10.4629 14.7299 10.446 14.7346C10.429 14.7393 10.5549 14.7021 10.5385 14.7078C10.522 14.7135 10.6469 14.6743 10.6309 14.6811C10.615 14.6879 10.7388 14.6465 10.7234 14.6543C10.7081 14.662 10.7998 14.592 10.7851 14.6007C10.7704 14.6094 10.8915 14.5376 10.8776 14.5472C10.8881 14.5385 10.8984 14.5295 10.9084 14.5204C10.8945 14.5308 10.9831 14.4555 10.9701 14.4668C10.957 14.4781 11.0438 14.4011 11.0317 14.4133C11.0656 14.3796 11.0965 14.3438 11.1242 14.3061C11.1162 14.3167 11.1623 14.2416 11.1551 14.2526C11.1478 14.2636 11.1924 14.1877 11.1859 14.199C11.182 14.2058 11.2056 14.193 11.2167 14.1722C11.2241 14.1584 11.2189 14.1408 11.2167 14.1455C11.2127 14.1536 11.238 14.1126 11.2475 14.0919C11.2448 14.0973 11.2403 14.0816 11.2475 14.0651C11.2584 14.0405 11.2817 14.0301 11.2784 14.0383C11.2729 14.0521 11.3136 13.9439 11.3092 13.958C11.3047 13.9721 11.3433 13.8633 11.34 13.8777C11.3367 13.892 11.3421 13.7828 11.34 13.7973C11.3379 13.8118 11.341 13.7024 11.34 13.717C11.3397 13.7219 11.3397 13.7034 11.34 13.6902C11.3393 13.7015 11.34 13.6253 11.34 13.6366C11.34 13.6479 11.3393 13.545 11.34 13.5563C11.3425 13.5206 11.3425 13.4848 11.34 13.4492L9.50552 4.47744C9.74363 4.26206 9.90724 3.98011 9.90724 3.64722V2.33494C9.90724 1.71174 9.37885 1.18335 8.75564 1.18335H7.3898Z" fill="#EBE7E4"/>
</svg>
